!!!!SEGMENT: pl-cz--iii-752--001_zebrowski-marcin-jozef--sonata-pro-processione-in-es.krn
!!!cenid: 17xx:2370
!!!COM: Żebrowski, Marcin Józef
!!!COM-rismID: pe30020322
!!!CDT: 1702-1770/06/29
!!!CNT: Polish
!!!OTL: Sonata pro processione in Es
!!!PDT:
!!!AGN:
!!!SMS-siglum: PL-CZ
!!!SMS-shelfmark: III-752
!!!SMS-shelfwork: 001 W
!!!SMS-variant:
!!!SMS-altvar:
!!!NIFC-rismSourceID: 300033533
!!!NIFC-islandoraID: pl-cz:25480
!!!URL-pdf-islandora: https://repozytorium.nifc.pl/islandora/object/pl-cz%3A25480/datastream/PDF/view
!!!URL-scan: https://polish.musicsources.pl/pl/lokalizacje/galeria/rekopisy/1483 @EN{Scan on Polish Music Sources Website} @PL{Skany w portalu Dziedzictwo Muzyki Polskiej w otwartym dostępie}
!!!ONB-nifc: UWAGA: w zbiorze 1. Sonata pro processione 001 (Andante 1), 2. Sonata pro processione 002 (Andante 2)
!!!AIN: 2 clrno 2 oboe 1 organ 2 violn
!!!key: E-
**kern	**fba	**dynam	**kern	**dynam	**kern	**dynam	**kern	**kern	**kern	**dynam	**kern	**dynam
*	*	*	*group3	*	*group3	*	*group2	*group2	*group1	*	*group1	*
*part7	*part7	*part7	*part6	*part6	*part5	*part5	*part4	*part3	*part2	*part2	*part1	*part1
*staff7	*	*	*staff6	*	*staff5	*	*staff4	*staff3	*staff2	*	*staff1	*
*I"Organo.	*	*	*I"Violino Secundo.	*	*I"Violino Primo	*	*I"Clarino Secundo.	*I"Clarino. Primo.	*I"Hoboa Secundo	*	*I"Hoboa Primo.	*
*I'org	*	*	*I'vl 2	*	*I'vl 1	*	*I'clno 2	*I'clno 1	*I'ob 2	*	*I'ob 1	*
*Iorgan	*	*	*Ivioln	*	*Ivioln	*	*Iclrno	*Iclrno	*Ioboe	*	*Ioboe	*
*ICklav	*	*	*ICstr	*	*ICstr	*	*ICbras	*ICbras	*ICww	*	*ICww	*
*clefF4	*	*	*clefG2	*	*clefG2	*	*clefG2	*clefG2	*clefG2	*	*clefG2	*
*	*	*	*	*	*	*	*ITrd-2c-3	*ITrd-2c-3	*	*	*	*
*k[e-b-a-]	*	*	*k[b-e-a-]	*	*k[b-e-a-]	*	*k[b-e-a-]	*k[b-e-a-]	*k[b-e-a-]	*	*k[b-e-a-]	*
*E-:	*	*	*E-:	*	*E-:	*	*E-:	*E-:	*E-:	*	*E-:	*
*M2/4	*	*	*M2/4	*	*M2/4	*	*M2/4	*M2/4	*M2/4	*	*M2/4	*
=1	=1	=1	=1	=1	=1	=1	=1	=1	=1	=1	=1	=1
!	!	!	!LO:TX:a:t=1	!	!LO:TX:t=P:problem=mixed beam	!	!	!	!LO:TX:a:t=1	!	!	!
!LO:TX:a:Bi:t=Andante\nnon molto.	!	!	!LO:TX:a:Bi:t=Andante\nnon molto.	!	!LO:TX:a:Bi:t=Andante\nnon molto.	!	!LO:TX:a:Bi:t=Andante\nnon molto&colon;	!LO:TX:a:Bi:t=Andante\nnon molto.	!LO:TX:a:Bi:t=Andante\nnon molto	!	!LO:TX:a:Bi:t=Andante\nnon molto	!
16E-\LL	.	.	2r	.	(16ee-\LL	.	4e-/	4e-/	2r	.	[4e-/	.
16E-\	.	.	.	.	16e-/J)	.	.	.	.	.	.	.
16E-\	.	.	.	.	[8e-/J	.	.	.	.	.	.	.
16E-\JJ	.	.	.	.	.	.	.	.	.	.	.	.
!	!	!	!	!	!LO:TUP:b:problem=klamra łukowa	!	!	!	!	!	!LO:TUP:b:problem=klamra łukowa	!
16E-\LL	.	.	.	.	24e-/LL]	.	4r	4r	.	.	24e-/LL]	.
.	.	.	.	.	24f/	.	.	.	.	.	24f/	.
16E-\	.	.	.	.	.	.	.	.	.	.	.	.
.	.	.	.	.	24g/	.	.	.	.	.	24g/	.
16E-\	6 4	.	.	.	24a-/	.	.	.	.	.	24a-/	.
.	.	.	.	.	24g/	.	.	.	.	.	24g/	.
16E-\JJ	.	.	.	.	.	.	.	.	.	.	.	.
.	.	.	.	.	24f/JJ	.	.	.	.	.	24f/JJ	.
=2	=2	=2	=2	=2	=2	=2	=2	=2	=2	=2	=2	=2
!	!	!	!LO:TX:t=P:problem=mixed beam	!	!LO:TX:t=P:problem=mixed beam	!	!	!	!	!	!	!
16E-\LL	5 3	.	(16ee-\LL	.	(16ee-\LL	.	4e-/	4e-/	[4e-/	.	[4g/	.
16E-\	.	.	16e-/J)	.	16g/J)	.	.	.	.	.	.	.
16E-\	.	.	[8e-/J	.	[8g/J	.	.	.	.	.	.	.
16E-\JJ	.	.	.	.	.	.	.	.	.	.	.	.
!	!	!	!LO:TUP:b:problem=klamra łukowa	!	!LO:TUP:b:problem=klamra łukowa	!	!	!	!LO:TUP:b:problem=klamra łukowa	!	!LO:TUP:b:problem=klamra łukowa	!
16E-\LL	.	.	24e-/LL]	.	24g/LL]	.	4r	4r	24e-/LL]	.	24g/LL]	.
.	.	.	24f/	.	24a-/	.	.	.	24f/	.	24a-/	.
16E-\	.	.	.	.	.	.	.	.	.	.	.	.
.	.	.	24g/	.	24b-/	.	.	.	24g/	.	24b-/	.
16E-\	6 4	.	24a-/	.	24cc/	.	.	.	24a-/	.	24cc/	.
.	.	.	24g/	.	24b-/	.	.	.	24g/	.	24b-/	.
16E-\JJ	.	.	.	.	.	.	.	.	.	.	.	.
.	.	.	24f/JJ	.	24a-/JJ	.	.	.	24f/JJ	.	24a-/JJ	.
=3	=3	=3	=3	=3	=3	=3	=3	=3	=3	=3	=3	=3
!	!	!	!LO:TX:t=P:problem=mixed beam	!	!	!	!	!	!	!	!	!
16E-\LL	5 3	.	(16ee-\LL	.	16ee-\LL	.	4e-/	4e-/	[4g/	.	[4b-\	.
16E-\	.	.	16g\J)	.	16b-\J	.	.	.	.	.	.	.
16E-\	.	.	[8g\J	.	[8b-\J	.	.	.	.	.	.	.
16E-\JJ	.	.	.	.	.	.	.	.	.	.	.	.
!	!	!	!LO:TUP:a:problem=klamra łukowa	!	!LO:TUP:a:problem=klamra łukowa	!	!	!	!LO:TUP:b:problem=klamra łukowa	!	!LO:TUP:a:problem=klamra łukowa	!
16E-\LL	.	.	24g\LL]	.	24b-\LL]	.	4r	4r	24g/LL]	.	24b-\LL]	.
.	.	.	24a-\	.	24cc\	.	.	.	24a-/	.	24cc\	.
16E-\	.	.	.	.	.	.	.	.	.	.	.	.
.	.	.	24b-\	.	24dd\	.	.	.	24b-/	.	24dd\	.
16E-\	6 4	.	24cc\	.	24ee-\	.	.	.	24cc/	.	24ee-\	.
.	.	.	24b-\	.	24dd\	.	.	.	24b-/	.	24dd\	.
16E-\JJ	.	.	.	.	.	.	.	.	.	.	.	.
.	.	.	24a-\JJ	.	24cc\JJ	.	.	.	24a-/JJ	.	24cc\JJ	.
=4	=4	=4	=4	=4	=4	=4	=4	=4	=4	=4	=4	=4
.	.	.	.	.	.	.	.	.	8qqb-/	.	8qqdd/	.
!LO:TX:t=P:problem=mixed beam	!	!	!	!	!	!	!	!	!	!	!	!
8E-\L	6 4	.	(16a-/LL	.	(16cc\LL	.	4e-/	4e-/	(16a-/LL	.	(16cc\LL	.
.	.	.	16g/J)	.	16b-\J)	.	.	.	16g/J)	.	16b-\J)	.
8EE-/J	5 3	.	8g/J|	.	8b-\J	.	.	.	8g/J|	.	8b-\J|	.
4r	.	.	4r	.	4r	.	8r	8r	4r	.	4r	.
!	!	!	!	!	!	!	!	!LO:TX:a:i:t=Solo&colon;	!	!	!	!
.	.	.	.	.	.	.	16.ee-\LL	16.gg\LL	.	.	.	.
.	.	.	.	.	.	.	32ff\JJk	32aa-\JJk	.	.	.	.
=5	=5	=5	=5	=5	=5	=5	=5	=5	=5	=5	=5	=5
!	!	!LO:DY:a:t=pia&colon;	!LO:TUP:b:problem=klamra łukowa	!LO:DY:a:t=p&colon;	!LO:TUP:b:problem=klamra łukowa	!LO:DY:t=pia.	!	!	!LO:TX:a:t=1	!	!	!
8E-\L	.	p	24g/LL	p	24b-/LL	p	8gg\L	8bb-\L	2r	.	2r	.
.	.	.	24e-/	.	24g/	.	.	.	.	.	.	.
.	.	.	24f/	.	24a-/	.	.	.	.	.	.	.
8E-\	.	.	24g/	.	24b-/	.	[8gg\J	[8bb-\J	.	.	.	.
.	.	.	24f/	.	24a-/	.	.	.	.	.	.	.
.	.	.	24e-/JJ	.	24g/JJ	.	.	.	.	.	.	.
!	!	!	!	!	!	!	!LO:TUP:a:problem=klamra łukowa	!LO:TUP:a:problem=klamra łukowa	!	!	!	!
8E-\	.	.	8g/L	.	8b-/L	.	24gg\LL]	24bb-\LL]	.	.	.	.
.	.	.	.	.	.	.	24ee-\	24gg\	.	.	.	.
.	.	.	.	.	.	.	24ff\	24aa-\	.	.	.	.
8E-\J	.	.	8g/J	.	8b-/J	.	24gg\	24bb-\	.	.	.	.
.	.	.	.	.	.	.	24ff\	24aa-\	.	.	.	.
.	.	.	.	.	.	.	24ee-\JJ	24gg\JJ	.	.	.	.
!	!	!	!	!	!LO:LB:g=original	!	!	!	!	!	!	!
=6	=6	=6	=6	=6	=6	=6	=6	=6	=6	=6	=6	=6
8B-\L	.	.	2f/	.	2a-/	.	(32ff\LLL	(32aa-\LLL	4r	.	4r	.
.	.	.	.	.	.	.	32ee-\	32gg\	.	.	.	.
.	.	.	.	.	.	.	32ff\	32aa-\	.	.	.	.
.	.	.	.	.	.	.	32gg\JJJ)	32bb-\JJJ)	.	.	.	.
8B-\	.	.	.	.	.	.	16ff\LL	16aa-\LL	.	.	.	.
.	.	.	.	.	.	.	16ff\JJ|	16aa-\JJ|	.	.	.	.
*	*	*	*	*	*	*	*	*	*	*	*Xtuplet	*
!	!	!	!	!	!	!	!	!	!LO:TUP:a:problem=klamra łukowa	!	!	!LO:DY:t=pia&colon;
8B-\	.	.	.	.	.	.	8ff\|	8aa-\|	24r	.	24r	p
.	.	.	.	.	.	.	.	.	24ff\LL	.	24aa-\LL	.
.	.	.	.	.	.	.	.	.	24gg\	.	24bb-\	.
8B-\J	.	.	.	.	.	.	8r	8r	24aa-\	.	24ccc\	.
.	.	.	.	.	.	.	.	.	24gg\	.	24bb-\	.
.	.	.	.	.	.	.	.	.	24ff\JJ	.	24aa-\JJ	.
=7	=7	=7	=7	=7	=7	=7	=7	=7	=7	=7	=7	=7
!	!	!	!LO:TUP:b:problem=klamra łukowa	!	!LO:TUP:a:problem=klamra łukowa	!	!	!	!LO:TX:a:t=1.	!	!	!
8BB-/L	7	.	24a-/LL	.	24ff\LL	.	8ff\L	8aa-\L	2r	.	2r	.
.	.	.	24f/	.	24dd\	.	.	.	.	.	.	.
.	.	.	24g/	.	24ee-\	.	.	.	.	.	.	.
8BB-/	.	.	24a-/	.	24ff\	.	[8ff\J	[8aa-\J	.	.	.	.
.	.	.	24g/	.	24ee-\	.	.	.	.	.	.	.
.	.	.	24f/JJ	.	24dd\JJ	.	.	.	.	.	.	.
!	!	!	!	!	!	!	!LO:TUP:a:problem=klamra łukowa	!LO:TUP:a:problem=klamra łukowa	!	!	!	!
8BB-/	.	.	8a-/L	.	8ff\L	.	24ff\LL]	24aa-\LL]	.	.	.	.
.	.	.	.	.	.	.	24b-\	24ff\	.	.	.	.
.	.	.	.	.	.	.	24ee-\	24gg\	.	.	.	.
8BB-/J	.	.	8a-/J	.	8ff\J	.	24ff\	24aa-\	.	.	.	.
.	.	.	.	.	.	.	24ee-\	24gg\	.	.	.	.
.	.	.	.	.	.	.	24b-\JJ	24ff\JJ	.	.	.	.
!LO:LB:g=original	!	!	!	!	!	!	!	!LO:LB:g=original	!LO:LB:g=original	!	!	!
=8	=8	=8	=8	=8	=8	=8	=8	=8	=8	=8	=8	=8
.	.	.	8qqa-/	.	8qqff/	.	.	.	.	.	.	.
*	*	*	*	*	*2\right	*	*	*	*	*	*	*
8E-\L	.	.	2g/	.	2ee-\	.	(32ee-\LLL	(32gg\LLL	4r	.	4r	.
.	.	.	.	.	.	.	32b-\	32ff\	.	.	.	.
.	.	.	.	.	.	.	32ee-\	32gg\	.	.	.	.
.	.	.	.	.	.	.	32ff\JJJ)	32aa-\JJJ)	.	.	.	.
8E-\	.	.	.	.	.	.	16ee-\LL	16gg\LL	.	.	.	.
.	.	.	.	.	.	.	16ee-\JJ|	16gg\JJ|	.	.	.	.
*	*	*	*	*	*	*	*	*	*	*	*tuplet	*
!	!	!	!	!	!	!	!	!	!LO:TUP:a:problem=klamra łukowa	!	!LO:TUP:a:problem=klamra łukowa	!
8E-\	.	.	.	.	.	.	8ee-\	8gg\|	24r	.	24r	.
.	.	.	.	.	.	.	.	.	24ee-\LL	.	24gg\LL	.
.	.	.	.	.	.	.	.	.	24ff\	.	24aa-\	.
8E-\J	.	.	.	.	.	.	8r	8r	24gg\	.	24bb-\	.
.	.	.	.	.	.	.	.	.	24ff\	.	24aa-\	.
.	.	.	.	.	.	.	.	.	24ee-\JJ	.	24gg\JJ	.
!	!	!	!LO:LB:g=original	!	!	!	!LO:LB:g=original	!	!	!	!LO:LB:g=original	!
=9	=9	=9	=9	=9	=9	=9	=9	=9	=9	=9	=9	=9
*	*	*	*	*	*	*	*	*	*	*	*2\right	*
!	!	!	!	!	!	!	!LO:TX:a:t=3	!LO:TUP:a:problem=klamra łukowa	!	!LO:DY:t=p&colon;	!	!LO:DY:t=pia&colon;
8r	.	.	8r	.	8r	.	1r	24aaX\LL	2an/	p	[2ff\	p
.	.	.	.	.	.	.	.	24ccc\	.	.	.	.
.	.	.	.	.	.	.	.	24bb-\J	.	.	.	.
8E-\L	n4r 2	.	8an/L	.	8cc\L	.	.	[8aanX\J	.	.	.	.
8E-\	.	.	8a/	.	8cc\	.	.	32aa\LLL]	.	.	.	.
.	.	.	.	.	.	.	.	32ff\	.	.	.	.
.	.	.	.	.	.	.	.	32gg\	.	.	.	.
.	.	.	.	.	.	.	.	32aanX\JJJ	.	.	.	.
8E-\J	.	.	8a/J	.	8cc\J	.	.	16.aat\LL	.	.	.	.
.	.	.	.	.	.	.	.	(64gg\LL	.	.	.	.
.	.	.	.	.	.	.	.	64aa\JJJJ)	.	.	.	.
=10	=10	=10	=10	=10	=10	=10	=10	=10	=10	=10	=10	=10
*	*	*	*	*	*	*	*	*	*2\right	*	*	*
!	!	!	!	!	!	!	!	!LO:TUP:a:problem=klamra łukowa	!	!	!	!
8D/L	6	.	8f/L	.	8dd\L	.	.	24bb-\LL	2b-\	.	2ff\_	.
.	.	.	.	.	.	.	.	24ddd\	.	.	.	.
.	.	.	.	.	.	.	.	24ccc\J	.	.	.	.
8D/	.	.	8f/	.	8dd\	.	.	[8bb-\J	.	.	.	.
8D/	.	.	8f/	.	8dd\	.	.	32bb-\LLL]	.	.	.	.
.	.	.	.	.	.	.	.	32ff\	.	.	.	.
.	.	.	.	.	.	.	.	32gg\	.	.	.	.
.	.	.	.	.	.	.	.	32aaX\JJJ	.	.	.	.
8D/J	.	.	8f/J	.	8dd\J	.	.	32bb-\LLL	.	.	.	.
.	.	.	.	.	.	.	.	32ddd\	.	.	.	.
.	.	.	.	.	.	.	.	32ccc\	.	.	.	.
.	.	.	.	.	.	.	.	32bb-\JJJ	.	.	.	.
=11	=11	=11	=11	=11	=11	=11	=11	=11	=11	=11	=11	=11
!	!	!	!	!	!	!	!	!LO:TUP:a:problem=klamra łukowa	!	!	!	!
8AAn/L	6 5	.	8f/L	.	8ee-\L	.	2r	24ccc\LL	2cc\	.	2ff\]	.
.	.	.	.	.	.	.	.	24eee-\	.	.	.	.
.	.	.	.	.	.	.	.	24ddd\J	.	.	.	.
8AA/	.	.	8f/	.	8ee-\	.	.	[8ccc\J	.	.	.	.
8AA/	.	.	8f/	.	8ee-\	.	.	32ccc\LLL]	.	.	.	.
.	.	.	.	.	.	.	.	32ff\	.	.	.	.
.	.	.	.	.	.	.	.	32aaX\	.	.	.	.
.	.	.	.	.	.	.	.	32bb-\JJJ	.	.	.	.
8AA/J	.	.	8f/J	.	8ee-\J	.	.	32ccc\LLL	.	.	.	.
.	.	.	.	.	.	.	.	32eee-\	.	.	.	.
.	.	.	.	.	.	.	.	32ddd\	.	.	.	.
.	.	.	.	.	.	.	.	32ccc\JJJ	.	.	.	.
=12	=12	=12	=12	=12	=12	=12	=12	=12	=12	=12	=12	=12
*	*	*	*	*	*	*	*2\right	*	*	*	*	*
!LO:TX:t=P:problem=mixed beam	!	!	!	!	!	!	!	!LO:TUP:a:problem=klamra łukowa	!LO:TX:a:t=4	!	!LO:TX:a:t=3	!
8BB-/L	.	.	8f/	.	8dd\	.	[2ff\	24ddd\LL	0r	.	1r	.
.	.	.	.	.	.	.	.	24bb-\	.	.	.	.
.	.	.	.	.	.	.	.	24ff\J	.	.	.	.
8B-\	.	.	4dd\	.	4ff\	.	.	[8ff\J	.	.	.	.
8D\	6	.	.	.	.	.	.	32ff\LLL]	.	.	.	.
.	.	.	.	.	.	.	.	32gg\	.	.	.	.
.	.	.	.	.	.	.	.	32aaX\	.	.	.	.
.	.	.	.	.	.	.	.	32bb-\JJJ	.	.	.	.
8F\J	7 n	.	8cc\	.	8ee-\	.	.	32ccc\LLL	.	.	.	.
.	.	.	.	.	.	.	.	32eee-\	.	.	.	.
.	.	.	.	.	.	.	.	32ddd\	.	.	.	.
.	.	.	.	.	.	.	.	32ccc\JJJ	.	.	.	.
!	!	!	!	!	!	!	!	!LO:LB:g=original	!	!	!	!
=13	=13	=13	=13	=13	=13	=13	=13	=13	=13	=13	=13	=13
!	!	!	!	!	!	!	!	!LO:TUP:a:problem=klamra łukowa	!	!	!	!
8r	.	.	8b-\	.	8dd\	.	2ff\_	24ddd\LL	.	.	.	.
.	.	.	.	.	.	.	.	24bb-\	.	.	.	.
.	.	.	.	.	.	.	.	24ff\J	.	.	.	.
8B-\L	.	.	4dd\	.	4ff\	.	.	[8ff\J	.	.	.	.
8D\	6	.	.	.	.	.	.	32ff\LLL]	.	.	.	.
.	.	.	.	.	.	.	.	32gg\	.	.	.	.
.	.	.	.	.	.	.	.	32aaX\	.	.	.	.
.	.	.	.	.	.	.	.	32bb-\JJJ	.	.	.	.
8F\J	7 n	.	8cc\	.	8ee-\	.	.	32ccc\LLL	.	.	.	.
.	.	.	.	.	.	.	.	32eee-\	.	.	.	.
.	.	.	.	.	.	.	.	32ddd\	.	.	.	.
.	.	.	.	.	.	.	.	32ccc\JJJ	.	.	.	.
!	!	!	!	!	!LO:LB:g=original	!	!	!	!	!	!	!
=14	=14	=14	=14	=14	=14	=14	=14	=14	=14	=14	=14	=14
!LO:TX:t=P:problem=mixed beam	!	!	!	!	!	!	!	!	!	!	!	!
8D\L	6	.	8b-\	.	(8ff\L	.	8ff\L]	32bb-\LLL	.	.	2r	.
.	.	.	.	.	.	.	.	32aaX\	.	.	.	.
.	.	.	.	.	.	.	.	32gg\	.	.	.	.
.	.	.	.	.	.	.	.	32ff\JJJ	.	.	.	.
8E-\	6 5	.	4b-\	.	16gg\L)	.	8gg\J	32eee-\LLL	.	.	.	.
.	.	.	.	.	.	.	.	32ddd\	.	.	.	.
.	.	.	.	.	16ee-\JJ|	.	.	32ccc\	.	.	.	.
.	.	.	.	.	.	.	.	32bb-\JJJ	.	.	.	.
8F\	6 4	.	.	.	8dd\L	.	8bb-\L	16.ff\LL	.	.	.	.
.	.	.	.	.	.	.	.	32bb-\JK	.	.	.	.
8FF/J	7 n	.	8an\	.	8ccT\J	.	8aaXt\J	8cccT\J	.	.	.	.
=15	=15	=15	=15	=15	=15	=15	=15	=15	=15	=15	=15	=15
!	!	!LO:DY:t=for	!	!LO:DY:t=for.	!	!LO:DY:t=for.	!	!	!	!	!	!LO:DY:t=for&colon;
16BB-/LL	.	f	4b-/	f	(16bb-\LL	f	4b-/	4bb-\	.	.	[4b-\	f
16BB-/	.	.	.	.	16b-\J)	.	.	.	.	.	.	.
16BB-/	.	.	.	.	[8b-\J	.	.	.	.	.	.	.
16BB-/JJ	.	.	.	.	.	.	.	.	.	.	.	.
!	!	!	!	!	!LO:TUP:a:problem=klamra łukowa	!	!	!	!	!	!LO:TUP:a:problem=klamra łukowa	!
16BB-/LL	.	.	4r	.	24b-\LL]	.	4r	4r	.	.	24b-\LL]	.
.	.	.	.	.	24cc\	.	.	.	.	.	24cc\	.
16BB-/	.	.	.	.	.	.	.	.	.	.	.	.
.	.	.	.	.	24dd\	.	.	.	.	.	24dd\	.
16BB-/	6 4	.	.	.	24ee-\	.	.	.	.	.	24ee-\	.
.	.	.	.	.	24dd\	.	.	.	.	.	24dd\	.
16BB-/JJ	.	.	.	.	.	.	.	.	.	.	.	.
.	.	.	.	.	24cc\JJ	.	.	.	.	.	24cc\JJ	.
!	!	!	!	!	!	!	!	!LO:LB:g=original	!	!	!	!
=16	=16	=16	=16	=16	=16	=16	=16	=16	=16	=16	=16	=16
16BB-/LL	3 5	.	(16bb-\LL	.	(16bb-\LL	.	4b-/	4ff\	[4b-\	.	[4dd\	.
16BB-/	.	.	16b-\J)	.	16dd\J)	.	.	.	.	.	.	.
16BB-/	.	.	[8b-\J	.	[8dd\J	.	.	.	.	.	.	.
16BB-/JJ	.	.	.	.	.	.	.	.	.	.	.	.
!LO:LB:g=original	!	!	!LO:TUP:a:problem=klamra łukowa	!	!LO:TUP:a:problem=klamra łukowa	!	!	!	!LO:TUP:a:problem=klamra łukowa	!	!LO:TUP:a:problem=klamra łukowa	!
16BB-/LL	.	.	24b-\LL]	.	24dd\LL]	.	4r	4r	24b-\LL]	.	24dd\LL]	.
.	.	.	24cc\	.	24ee-\	.	.	.	24cc\	.	24ee-\	.
16BB-/	.	.	.	.	.	.	.	.	.	.	.	.
.	.	.	24dd\	.	24ff\	.	.	.	24dd\	.	24ff\	.
16BB-/	4 6	.	24ee-\	.	24gg\	.	.	.	24ee-\	.	24gg\	.
.	.	.	24dd\	.	24ff\	.	.	.	24dd\	.	24ff\	.
16BB-/JJ	.	.	.	.	.	.	.	.	.	.	.	.
.	.	.	24cc\JJ	.	24ee-\JJ	.	.	.	24cc\JJ	.	24ee-\JJ	.
=17	=17	=17	=17	=17	=17	=17	=17	=17	=17	=17	=17	=17
16BB-/LL	5 3	.	(16bb-\LL	.	(16bb-\LL	.	4b-/	4ff\	[4dd\	.	[4ff\	.
16BB-/	.	.	16dd\J)	.	16ff\J)	.	.	.	.	.	.	.
16BB-/	.	.	[8dd\J	.	[8ff\J	.	.	.	.	.	.	.
16BB-/JJ	.	.	.	.	.	.	.	.	.	.	.	.
!	!	!	!LO:TUP:a:problem=klamra łukowa	!	!LO:TUP:a:problem=klamra łukowa	!	!	!	!LO:TUP:a:problem=klamra łukowa	!	!LO:TUP:a:problem=klamra łukowa	!
16BB-/LL	.	.	24dd\LL]	.	24ff\LL]	.	4r	4r	24dd\LL]	.	24ff\LL]	.
.	.	.	24ee-\	.	24gg\	.	.	.	24ee-\	.	24gg\	.
16BB-/	.	.	.	.	.	.	.	.	.	.	.	.
.	.	.	24ff\	.	24aan\	.	.	.	24ff\	.	24aan\	.
16BB-/	.	.	24gg\	.	24bb-\	.	.	.	24gg\	.	24bb-\	.
.	.	.	24ff\	.	24aa\	.	.	.	24ff\	.	24aa\	.
16BB-/JJ	6 4	.	.	.	.	.	.	.	.	.	.	.
.	.	.	24ee-\JJ	.	24gg\JJ	.	.	.	24ee-\JJ	.	24gg\JJ	.
!	!	!	!LO:LB:g=original	!	!	!	!	!	!LO:LB:g=original	!	!	!
=18	=18	=18	=18	=18	=18	=18	=18	=18	=18	=18	=18	=18
.	.	.	.	.	.	.	.	.	8qqff/	.	.	.
!LO:TX:t=P:problem=mixed beam	!	!	!	!	!	!	!	!	!	!	!	!
8B-\L	4 6	.	(16ee-\LL	.	(16gg\LL	.	8ee-\L	8gg\L	(16ee-\LL	.	(16gg\LL	.
.	.	.	16dd\J)	.	16ff\J)	.	.	.	16dd\J)	.	16ff\J)	.
8BB-/J	3 5	.	8dd\J|	.	8ff\J|	.	8b-\J	8ff\J	8dd\J|	.	8ff\J|	.
8r	.	.	8r	.	4aa-X\	.	4r	4r	4r	.	4r	.
8F\	6 n4r -3r	.	8bn/	.	.	.	.	.	.	.	.	.
!	!	!	!	!	!	!	!	!	!	!	!LO:LB:g=original	!
=19	=19	=19	=19	=19	=19	=19	=19	=19	=19	=19	=19	=19
!LO:TX:t=P:problem=mixed beam	!	!	!	!	!	!	!	!	!LO:TX:a:t=3	!	!LO:TX:a:t=3	!
8E-\L	6	.	(16cc\LL	.	(16aa-\LL	.	8r	8r	1r	.	1r	.
.	.	.	16ee-\)	.	16gg\)	.	.	.	.	.	.	.
8G\	7 n3	.	(16ee-\	.	(16gg\	.	16g/LL	16g/LL	.	.	.	.
*	*	*	*	*	*custos:b	*	*	*	*	*	*	*
!	!	!	!	!	!LO:TX:t=P:global:problem=wszystkie custos użyte jako łamanie pięciolinii	!	!	!	!	!	!	!
.	.	.	16dd\JJ)	.	16ff\JJ)	.	16g/JJ	16g/JJ	.	.	.	.
!	!	!	!	!	!LO:LB:g=original	!	!	!	!	!	!	!
8G\	.	.	(16dd\LL	.	(16ff\LL	.	16g/LL	16g/LL	.	.	.	.
.	.	.	16cc\)	.	16ee-\)	.	16g/	16g/	.	.	.	.
8GG/J	.	.	(16cc\	.	(16ee-\	.	16g/	16g/	.	.	.	.
.	.	.	16bn\JJ)	.	16dd\JJ)	.	16g/JJ	16g/JJ	.	.	.	.
=20	=20	=20	=20	=20	=20	=20	=20	=20	=20	=20	=20	=20
8C/L	.	.	8cc\L	.	(32cc\LLL	.	4g/	4g/	.	.	.	.
.	.	.	.	.	32bn\	.	.	.	.	.	.	.
.	.	.	.	.	32cc\	.	.	.	.	.	.	.
.	.	.	.	.	32dd\JJJ)	.	.	.	.	.	.	.
8CC/J	.	.	8g\J	.	(32ee-\LLL	.	.	.	.	.	.	.
.	.	.	.	.	32dd\	.	.	.	.	.	.	.
.	.	.	.	.	32ee-\	.	.	.	.	.	.	.
.	.	.	.	.	32ff\JJJ)	.	.	.	.	.	.	.
8r	.	.	8r	.	[4gg-X\	.	4r	4r	.	.	.	.
8E-\	6 n4r -3r	.	8an/	.	.	.	.	.	.	.	.	.
!	!	!	!	!	!	!	!LO:LB:g=original	!	!	!	!	!
=21	=21	=21	=21	=21	=21	=21	=21	=21	=21	=21	=21	=21
!LO:TX:t=P:problem=mixed beam	!	!	!	!	!	!	!LO:TX:a:t=1	!LO:TX:a:t=1	!	!	!	!
8D\L	6	.	(16b-X\LL	.	(16gg-\LL]	.	2r	2r	2r	.	2r	.
.	.	.	16dd\)	.	16ff\)	.	.	.	.	.	.	.
8F\	7 n3	.	(16dd\	.	(16ff\	.	.	.	.	.	.	.
.	.	.	16cc\JJ)	.	16ee-\JJ)	.	.	.	.	.	.	.
8F\	.	.	(16cc\LL	.	(16ee-\LL	.	.	.	.	.	.	.
.	.	.	16b-\)	.	16dd\)	.	.	.	.	.	.	.
8FF/J	.	.	(16b-\	.	(16dd\	.	.	.	.	.	.	.
.	.	.	16an\JJ)	.	16cc\JJ)	.	.	.	.	.	.	.
=22	=22	=22	=22	=22	=22	=22	=22	=22	=22	=22	=22	=22
*	*	*	*	*	*	*	*	*2\right	*	*	*	*
!LO:TX:t=P:problem=mixed beam	!	!	!	!	!LO:TUP:a:problem=klamra łukowa	!	!	!	!	!	!	!
8BB-/L	.	.	16b-LL 16d/	.	24b-\LL	.	2b-/	2ff\	2dd\	.	2ff\	.
.	.	.	.	.	24an\	.	.	.	.	.	.	.
.	.	.	16b- 16d/	.	.	.	.	.	.	.	.	.
.	.	.	.	.	24b-\JJ	.	.	.	.	.	.	.
!	!	!	!	!	!LO:TUP:a:problem=klamra łukowa	!	!	!	!	!	!	!
8BB-/	.	.	16b- 16d/	.	24dd\LL	.	.	.	.	.	.	.
.	.	.	.	.	24cc\	.	.	.	.	.	.	.
.	.	.	16b-JJ 16d/	.	.	.	.	.	.	.	.	.
.	.	.	.	.	24dd\JJ	.	.	.	.	.	.	.
!	!	!	!	!	!LO:TUP:a:problem=klamra łukowa	!	!	!	!	!	!	!
8A-X\	4 2	.	16b-LL 16d/	.	24ff\LL	.	.	.	.	.	.	.
.	.	.	.	.	24ee-\	.	.	.	.	.	.	.
.	.	.	16b- 16d/	.	.	.	.	.	.	.	.	.
.	.	.	.	.	24ff\JJ	.	.	.	.	.	.	.
!	!	!	!	!	!LO:TUP:a:problem=klamra łukowa	!	!	!	!	!	!	!
8A-\J	.	.	16b- 16d/	.	24bb-\LL	.	.	.	.	.	.	.
.	.	.	.	.	24aan\	.	.	.	.	.	.	.
.	.	.	16b-JJ 16d/	.	.	.	.	.	.	.	.	.
.	.	.	.	.	24bb-\JJ	.	.	.	.	.	.	.
=23	=23	=23	=23	=23	=23	=23	=23	=23	=23	=23	=23	=23
!	!	!	!	!	!LO:TUP:a:problem=klamra łukowa	!	!	!	!	!	!	!
8G\L	6	.	16b-LL 16e-/	.	24b-\LL	.	2ee-\	2gg\	2ee-\	.	2gg\	.
.	.	.	.	.	24an\	.	.	.	.	.	.	.
.	.	.	16b- 16e-/	.	.	.	.	.	.	.	.	.
.	.	.	.	.	24b-\JJ	.	.	.	.	.	.	.
!	!	!	!	!	!LO:TUP:a:problem=klamra łukowa	!	!	!	!	!	!	!
8G\	.	.	16b- 16e-/	.	24ee-\LL	.	.	.	.	.	.	.
.	.	.	.	.	24dd\	.	.	.	.	.	.	.
.	.	.	16b-JJ 16e-/	.	.	.	.	.	.	.	.	.
.	.	.	.	.	24ee-\JJ	.	.	.	.	.	.	.
!	!	!	!	!	!LO:TUP:a:problem=klamra łukowa	!	!	!	!	!	!	!
8E-\	.	.	16b-LL 16e-/	.	24gg\LL	.	.	.	.	.	.	.
.	.	.	.	.	24ff\	.	.	.	.	.	.	.
.	.	.	16b- 16e-/	.	.	.	.	.	.	.	.	.
.	.	.	.	.	24gg\JJ	.	.	.	.	.	.	.
!	!	!	!	!	!LO:TUP:a:problem=klamra łukowa	!	!	!	!	!	!	!
8E-\J	.	.	16b- 16e-/	.	24bb-\LL	.	.	.	.	.	.	.
.	.	.	.	.	24aany\	.	.	.	.	.	.	.
.	.	.	16b-JJ 16e-/	.	.	.	.	.	.	.	.	.
.	.	.	.	.	24bb-\JJ	.	.	.	.	.	.	.
!	!	!	!	!	!LO:LB:g=original	!	!	!LO:LB:g=original	!	!	!	!
=24	=24	=24	=24	=24	=24	=24	=24	=24	=24	=24	=24	=24
*	*	*	*^	*	*	*	*	*	*	*	*	*
!	!	!	!	!	!	!LO:TUP:a:problem=klamra łukowa	!	!	!	!	!	!	!
8D/L	6	.	16b-/LL	16f\LL	.	24b-\LL	.	2ff\	2aa-\	2ff\	.	2aa-\	.
.	.	.	.	.	.	24an\	.	.	.	.	.	.	.
.	.	.	16b-/	16f\	.	.	.	.	.	.	.	.	.
.	.	.	.	.	.	24b-\JJ	.	.	.	.	.	.	.
!	!	!	!	!	!	!LO:TUP:a:problem=klamra łukowa	!	!	!	!	!	!	!
8D/	.	.	16b-/	16f\	.	24dd\LL	.	.	.	.	.	.	.
.	.	.	.	.	.	24cc\	.	.	.	.	.	.	.
.	.	.	16b-/JJ	16f\JJ	.	.	.	.	.	.	.	.	.
.	.	.	.	.	.	24dd\JJ	.	.	.	.	.	.	.
!	!	!	!LO:LB:g=original	!	!	!LO:TUP:a:problem=klamra łukowa	!	!	!	!	!	!	!
8BB-/	7	.	16b-/LL	16d\LL	.	24ff\LL	.	.	.	.	.	.	.
.	.	.	.	.	.	24een\	.	.	.	.	.	.	.
.	.	.	16b-/	16d\	.	.	.	.	.	.	.	.	.
.	.	.	.	.	.	24ff\JJ	.	.	.	.	.	.	.
!	!	!	!	!	!	!LO:TUP:a:problem=klamra łukowa	!	!	!	!	!	!	!
8BB-/J	.	.	16b-/	16d\	.	24aan\LL	.	.	.	.	.	.	.
.	.	.	.	.	.	24gg\	.	.	.	.	.	.	.
.	.	.	16b-/JJ	16d\JJ	.	.	.	.	.	.	.	.	.
.	.	.	.	.	.	24aa\JJ	.	.	.	.	.	.	.
*	*	*	*v	*v	*	*	*	*	*	*	*	*	*
=25	=25	=25	=25	=25	=25	=25	=25	=25	=25	=25	=25	=25
!LO:TX:t=P:problem=mixed beam	!	!	!	!	!	!	!	!	!	!	!	!
8E-\L	3	.	8ee-\|	.	8gg\|	.	8ee-\	8gg\	8ee-\	.	8gg\	.
8AAn/	-7r 5	.	(4ee-\	.	(4gg-X\	.	8r	8r	8r	.	8r	.
8AA/	.	.	.	.	.	.	4r	4r	4r	.	4r	.
8AA/J	.	.	16dd\LL	.	16ff\LL	.	.	.	.	.	.	.
.	.	.	16cc\JJ)	.	16ee-\JJ)	.	.	.	.	.	.	.
!LO:LB:g=original	!	!	!	!	!	!	!	!	!	!	!	!
=26	=26	=26	=26	=26	=26	=26	=26	=26	=26	=26	=26	=26
!	!	!	!	!	!LO:TUP:a:problem=klamra łukowa	!	!LO:TX:a:t=2	!LO:TX:a:t=2	!	!	!	!
4BB-/	5 8	.	8b-\|	.	24dd\LL	.	1r	1r	4dd\	.	4ff\	.
.	.	.	.	.	24cc\	.	.	.	.	.	.	.
.	.	.	.	.	24b-\JJ	.	.	.	.	.	.	.
!	!	!	!LO:TUP:a:problem=klamra łukowa	!	!LO:TUP:a:problem=klamra łukowa	!	!	!	!	!	!	!
.	.	.	24dd\LL	.	24b-\LL	.	.	.	.	.	.	.
.	.	.	24cc\	.	24cc\	.	.	.	.	.	.	.
.	.	.	24b-\JJ	.	24dd\JJ	.	.	.	.	.	.	.
!	!	!	!LO:TUP:a:problem=klamra łukowa	!	!LO:TUP:a:problem=klamra łukowa	!	!	!	!	!	!	!
4r	.	.	24b-\LL	.	24dd\LL	.	.	.	4r	.	4r	.
.	.	.	24cc\	.	24ee-\	.	.	.	.	.	.	.
.	.	.	24dd\JJ	.	24ff\JJ	.	.	.	.	.	.	.
!	!	!	!LO:TUP:a:problem=klamra łukowa	!	!LO:TUP:a:problem=klamra łukowa	!	!	!	!	!	!	!
.	.	.	24dd\LL	.	24ff\LL	.	.	.	.	.	.	.
.	.	.	24ee-\	.	24gg\	.	.	.	.	.	.	.
.	.	.	24ff\JJ	.	24aa-\JJ	.	.	.	.	.	.	.
=27	=27	=27	=27	=27	=27	=27	=27	=27	=27	=27	=27	=27
!	!	!	!LO:TX:t=P:problem=skreślona nuta 8ee-	!	!	!	!	!	!	!	!	!
8r	.	.	8ee-\|	.	8gg\|	.	.	.	8ee-\	.	8gg\	.
8AAn/L	-7r 5	.	(4ee-\	.	4gg-X\	.	.	.	8r	.	8r	.
8AA/	.	.	.	.	.	.	.	.	4r	.	4r	.
8AA/J	.	.	16dd\LL	.	(16ff\LL	.	.	.	.	.	.	.
.	.	.	16cc\JJ)	.	16ee-\JJ)	.	.	.	.	.	.	.
=28	=28	=28	=28	=28	=28	=28	=28	=28	=28	=28	=28	=28
!LO:TX:t=P:problem=mixed beam	!	!	!	!	!	!	!	!	!	!	!	!
8BB-/L	.	.	16.b-/LL	.	(32dd\LLL	.	4r	4r	4dd\	.	4ff\	.
.	.	.	.	.	32cc\	.	.	.	.	.	.	.
.	.	.	.	.	32b-\	.	.	.	.	.	.	.
.	.	.	32f/JK	.	32cc\JJ)	.	.	.	.	.	.	.
8B-\J	.	.	8d/J	.	8b-\J|	.	.	.	.	.	.	.
4r	.	.	4r	.	4r	.	8r	8r	4r	.	4r	.
!	!	!	!	!	!	!	!	!LO:TX:a:i:t=Solo&colon;	!	!	!	!
.	.	.	.	.	.	.	16.ee-\LL	16.gg\LL	.	.	.	.
.	.	.	.	.	.	.	32ff\JJk	32aa-\JJk	.	.	.	.
!	!	!	!	!	!LO:LB:g=original	!	!	!	!	!	!	!
=29	=29	=29	=29	=29	=29	=29	=29	=29	=29	=29	=29	=29
!	!	!LO:DY:a:t=pia	!LO:TUP:b:problem=klamra łukowa	!LO:DY:t=pi:rj	!LO:TUP:b:problem=klamra łukowa	!LO:DY:t=pia.	!	!	!	!	!LO:TX:a:t=1	!
8E-\L	.	p	24g/LL	p	24b-/LL	p	8gg\L	8bb-\L	2r	.	2r	.
.	.	.	24e-/	.	24g/	.	.	.	.	.	.	.
.	.	.	24f/	.	24a-/	.	.	.	.	.	.	.
8E-\	.	.	24g/	.	24b-/	.	[8gg\J	[8bb-\J	.	.	.	.
.	.	.	24f/	.	24a-/	.	.	.	.	.	.	.
.	.	.	24e-/JJ	.	24g/JJ	.	.	.	.	.	.	.
!	!	!	!	!	!	!	!LO:TUP:a:problem=klamra łukowa	!LO:TUP:a:problem=klamra łukowa	!	!	!	!
8E-\	.	.	8g/L	.	8b-/L	.	24gg\LL]	24bb-\LL]	.	.	.	.
.	.	.	.	.	.	.	24ee-\	24gg\	.	.	.	.
.	.	.	.	.	.	.	24ff\	24aa-\	.	.	.	.
8E-\J	.	.	8g/J	.	8b-/J	.	24gg\	24bb-\	.	.	.	.
.	.	.	.	.	.	.	24ff\	24aa-\	.	.	.	.
.	.	.	.	.	.	.	24ee-\JJ	24gg\JJ	.	.	.	.
!	!	!	!	!	!	!	!	!	!LO:LB:g=original	!	!	!
=30	=30	=30	=30	=30	=30	=30	=30	=30	=30	=30	=30	=30
.	.	.	8qqg/	.	8qqb-/	.	.	.	.	.	.	.
8B-\L	7	.	2f/	.	2a-/	.	(32ff\LLL	(32aa-\LLL	4r	.	4r	.
.	.	.	.	.	.	.	32ee-\	32gg\	.	.	.	.
.	.	.	.	.	.	.	32ff\	32aa-\	.	.	.	.
.	.	.	.	.	.	.	32gg\JJJ)	32bb-\JJJ)	.	.	.	.
8B-\	.	.	.	.	.	.	16ff\LL	16aa-\LL	.	.	.	.
.	.	.	.	.	.	.	16ff\JJ|	16aa-\JJ|	.	.	.	.
!	!	!	!	!	!	!	!	!	!LO:TUP:a:problem=klamra łukowa	!	!LO:TUP:a:problem=klamra łukowa	!
8B-\	.	.	.	.	.	.	8ff\	8aa-\|	24r	.	24r	.
.	.	.	.	.	.	.	.	.	24ff\LL	.	24aa-\LL	.
.	.	.	.	.	.	.	.	.	24gg\	.	24bb-\	.
8B-\J	.	.	.	.	.	.	8r	8r	24aa-\	.	24ccc\	.
.	.	.	.	.	.	.	.	.	24gg\	.	24bb-\	.
.	.	.	.	.	.	.	.	.	24ff\JJ	.	24aa-\JJ	.
!	!	!	!	!	!	!	!LO:LB:g=original	!	!	!	!	!
=31	=31	=31	=31	=31	=31	=31	=31	=31	=31	=31	=31	=31
!	!	!	!LO:TUP:b:problem=klamra łukowa	!	!LO:TUP:a:problem=klamra łukowa	!	!	!	!LO:TX:a:t=1	!	!LO:TX:a:t=1	!
8BB-/L	7	.	24a-/LL	.	24ff\LL	.	8ff\L	8aa-\L	2r	.	2r	.
.	.	.	24f/	.	24dd\	.	.	.	.	.	.	.
.	.	.	24g/	.	24ee-\	.	.	.	.	.	.	.
8BB-/	.	.	24a-/	.	24ff\	.	[8ff\J	[8aa-\J	.	.	.	.
.	.	.	24g/	.	24ee-\	.	.	.	.	.	.	.
.	.	.	24f/JJ	.	24dd\JJ	.	.	.	.	.	.	.
!	!	!	!LO:LB:g=original	!	!	!	!LO:TUP:a:problem=klamra łukowa	!LO:TUP:a:problem=klamra łukowa	!	!	!	!
8BB-/	.	.	8a-/L	.	8ff\L	.	24ff\LL]	24aa-\LL]	.	.	.	.
.	.	.	.	.	.	.	24b-\	24ff\	.	.	.	.
.	.	.	.	.	.	.	24ee-\	24gg\	.	.	.	.
8BB-/J	.	.	8a-/J	.	8ff\J	.	24ff\	24aa-\	.	.	.	.
.	.	.	.	.	.	.	24ee-\	24gg\	.	.	.	.
.	.	.	.	.	.	.	24b-\JJ	24ff\JJ	.	.	.	.
!	!	!	!	!	!	!	!	!LO:LB:g=original	!	!	!LO:LB:g=original	!
=32	=32	=32	=32	=32	=32	=32	=32	=32	=32	=32	=32	=32
.	.	.	8qqa-/	.	8qqff/	.	.	.	.	.	.	.
8E-\L	.	.	2g/	.	2ee-\	.	(32ee-\LLL	(32gg\LLL	4r	.	4r	.
.	.	.	.	.	.	.	32b-\	32ff\	.	.	.	.
.	.	.	.	.	.	.	32ee-\	32gg\	.	.	.	.
.	.	.	.	.	.	.	32ff\JJJ)	32aa-\JJJ)	.	.	.	.
8E-\	.	.	.	.	.	.	16ee-\LL	16gg\LL	.	.	.	.
.	.	.	.	.	.	.	16ee-\JJ|	16gg\JJ|	.	.	.	.
!	!	!	!	!	!	!	!	!	!LO:TUP:a:problem=klamra łukowa	!	!LO:TUP:a:problem=klamra łukowa	!
8E-\	.	.	.	.	.	.	8ee-\	8gg\	24r	.	24r	.
.	.	.	.	.	.	.	.	.	24ee-\LL	.	24gg\LL	.
.	.	.	.	.	.	.	.	.	24ff\	.	24aa-\	.
8E-\J	.	.	.	.	.	.	8r	8r	24gg\	.	24bb-\	.
.	.	.	.	.	.	.	.	.	24ff\	.	24aa-\	.
.	.	.	.	.	.	.	.	.	24ee-\JJ	.	24gg\JJ	.
=33	=33	=33	=33	=33	=33	=33	=33	=33	=33	=33	=33	=33
!	!	!	!	!	!	!	!	!	!LO:TX:a:t=7	!	!LO:TX:a:t=6	!
8D\L	7 5	.	(16cc\LL	.	(16aa-\LL	.	(16aa-\LL	(16ccc\LL	0r	.	0r	.
.	.	.	16b-\JJ)	.	16gg\JJ)	.	16gg\JJ)	16bb-\J)	.	.	.	.
8E-\J	5 3	.	4b-\	.	4gg\	.	8gg\	[8bb-\J	.	.	.	.
4r	.	.	.	.	.	.	4r	16bb-\LL]	.	.	.	.
.	.	.	.	.	.	.	.	32eee-\L	.	.	.	.
.	.	.	.	.	.	.	.	32bb-\JJJ	.	.	.	.
.	.	.	8r	.	8r	.	.	32aa-\LLL	.	.	.	.
.	.	.	.	.	.	.	.	32gg\	.	.	.	.
.	.	.	.	.	.	.	.	32ff\	.	.	.	.
.	.	.	.	.	.	.	.	32ee-\JJJ	.	.	.	.
=34	=34	=34	=34	=34	=34	=34	=34	=34	=34	=34	=34	=34
8BB-\L	7	.	(16a-/LL	.	(16ff\LL	.	(16ff\LL	(16aa-\LL	.	.	.	.
.	.	.	16g/JJ)	.	16ee-\JJ)	.	16ee-\JJ)	16gg\J)	.	.	.	.
8E-\J	3	.	4g/	.	4ee-\	.	4ee-\	[8gg\J	.	.	.	.
4r	.	.	.	.	.	.	.	16gg\LL]	.	.	.	.
.	.	.	.	.	.	.	.	32eee-\L	.	.	.	.
.	.	.	.	.	.	.	.	32bb-\JJJ	.	.	.	.
.	.	.	8r	.	8r	.	8r	32aa-\LLL	.	.	.	.
.	.	.	.	.	.	.	.	32gg\	.	.	.	.
.	.	.	.	.	.	.	.	32ff\	.	.	.	.
.	.	.	.	.	.	.	.	32ee-\JJJ	.	.	.	.
=35	=35	=35	=35	=35	=35	=35	=35	=35	=35	=35	=35	=35
*	*	*	*	*	*	*	*	*Xtuplet	*	*	*	*
!LO:TX:t=P:problem=mixed beam	!	!	!	!	!	!	!LO:TX:a:t=4	!	!	!	!	!
8G\L	6	.	8b-\L	.	8ee-\	.	0r	24bb-\LL	.	.	.	.
.	.	.	.	.	.	.	.	24eee-\	.	.	.	.
.	.	.	.	.	.	.	.	24ddd\JJ	.	.	.	.
8A-\	.	.	8cc\	.	4ee-\	.	.	24ccc\LL	.	.	.	.
.	.	.	.	.	.	.	.	24bb-\	.	.	.	.
.	.	.	.	.	.	.	.	24aa-\JJ	.	.	.	.
*	*	*	*	*	*	*	*	*tuplet	*	*	*	*
!	!	!	!	!	!	!	!	!LO:TUP:a:problem=klamra łukowa	!	!	!	!
8B-\	6 4	.	8b-\	.	.	.	.	24gg\LL	.	.	.	.
.	.	.	.	.	.	.	.	24ff\	.	.	.	.
.	.	.	.	.	.	.	.	24ee-\J	.	.	.	.
8BB-/J	5 3	.	8b-\J	.	8ddt\	.	.	8ffT\J	.	.	.	.
!	!	!	!	!	!	!	!	!LO:LB:g=original	!	!	!	!
=36	=36	=36	=36	=36	=36	=36	=36	=36	=36	=36	=36	=36
!	!	!	!	!	!	!	!	!LO:TUP:a:problem=klamra łukowa	!	!	!	!
4E-\	.	.	4gg 4b- 4e- 4G/	.	4gg 4b- 4e- 4G/	.	.	24ee-\LL	.	.	.	.
.	.	.	.	.	.	.	.	24gg\	.	.	.	.
.	.	.	.	.	.	.	.	24ff\J	.	.	.	.
.	.	.	.	.	.	.	.	[8ee-\J	.	.	.	.
4r	.	.	4r	.	4r	.	.	16ee-\LL]	.	.	.	.
.	.	.	.	.	.	.	.	32ff\L	.	.	.	.
.	.	.	.	.	.	.	.	32gg\JJJ	.	.	.	.
.	.	.	.	.	.	.	.	32aa-\LLL	.	.	.	.
.	.	.	.	.	.	.	.	32bb-\	.	.	.	.
.	.	.	.	.	.	.	.	32ccc\	.	.	.	.
.	.	.	.	.	.	.	.	32ddd\JJJ	.	.	.	.
!LO:LB:g=original	!	!	!	!	!LO:LB:g=original	!	!	!	!	!	!	!
=37	=37	=37	=37	=37	=37	=37	=37	=37	=37	=37	=37	=37
4E-\	.	.	4gg 4b- 4e- 4G/	.	4gg 4b- 4e- 4G/	.	.	(16eee-\LL	1r	.	1r	.
.	.	.	.	.	.	.	.	16ee-\J)	.	.	.	.
.	.	.	.	.	.	.	.	[8ee-\J	.	.	.	.
4r	.	.	4r	.	4r	.	.	16ee-\LL]	.	.	.	.
.	.	.	.	.	.	.	.	32ff\L	.	.	.	.
.	.	.	.	.	.	.	.	32gg\JJJ	.	.	.	.
.	.	.	.	.	.	.	.	32aa-\LLL	.	.	.	.
.	.	.	.	.	.	.	.	32bb-\	.	.	.	.
.	.	.	.	.	.	.	.	32ccc\	.	.	.	.
.	.	.	.	.	.	.	.	32ddd\JJJ	.	.	.	.
=38	=38	=38	=38	=38	=38	=38	=38	=38	=38	=38	=38	=38
*	*	*	*	*	*	*	*	*Xtuplet	*	*	*	*
8GG/L	6	.	8b-\L	.	8ee-\L	.	.	24eee-\LL	.	.	.	.
.	.	.	.	.	.	.	.	24bb-\	.	.	.	.
.	.	.	.	.	.	.	.	24gg\JJ	.	.	.	.
8AA-/	.	.	8cc\	.	8ee-\	.	.	24ccc\LL	.	.	.	.
.	.	.	.	.	.	.	.	24aa-\	.	.	.	.
.	.	.	.	.	.	.	.	24ff\JJ	.	.	.	.
8BB-/	6 4	.	8g\	.	8ee-\	.	.	8b-\L	.	.	.	.
8BB-/J	7 3	.	8f\J	.	8dd\J	.	.	8ffT\J	.	.	.	.
=39	=39	=39	=39	=39	=39	=39	=39	=39	=39	=39	=39	=39
!	!	!LO:DY:t=for	!	!	!LO:TX:t=P:problem=mixed beam	!LO:DY:t=for	!	!	!	!	!	!LO:DY:rj
16E-\LL	.	f	4g/	.	(16ee-\LL	f	4e-/	4ee-\	2r	.	[4e-/	f
16E-\	.	.	.	.	16e-/J)	.	.	.	.	.	.	.
16E-\	.	.	.	.	[8e-/J	.	.	.	.	.	.	.
16E-\JJ	.	.	.	.	.	.	.	.	.	.	.	.
!	!	!	!	!	!LO:TUP:b:problem=klamra łukowa	!	!	!	!	!	!LO:TUP:b:problem=klamra łukowa	!
16E-\LL	.	.	4r	.	24e-/LL]	.	4r	4r	.	.	24e-/LL]	.
.	.	.	.	.	24f/	.	.	.	.	.	24f/	.
16E-\	.	.	.	.	.	.	.	.	.	.	.	.
.	.	.	.	.	24g/	.	.	.	.	.	24g/	.
16E-\	6 4	.	.	.	24a-/	.	.	.	.	.	24a-/	.
.	.	.	.	.	24g/	.	.	.	.	.	24g/	.
16E-\JJ	.	.	.	.	.	.	.	.	.	.	.	.
.	.	.	.	.	24f/JJ	.	.	.	.	.	24f/JJ	.
=40	=40	=40	=40	=40	=40	=40	=40	=40	=40	=40	=40	=40
!	!	!	!LO:TX:t=P:problem=mixed beam	!	!LO:TX:t=P:problem=mixed beam	!	!	!	!	!	!	!
16E-\LL	5 3	.	(16ee-\LL	.	(16ee-\LL	.	4e-/	4b-/	[4e-/	.	[4g/	.
16E-\	.	.	16e-/J)	.	16g/J)	.	.	.	.	.	.	.
16E-\	.	.	[8e-/J	.	[8g/J	.	.	.	.	.	.	.
16E-\JJ	.	.	.	.	.	.	.	.	.	.	.	.
!	!	!	!LO:TUP:b:problem=klamra łukowa	!	!LO:TUP:b:problem=klamra łukowa	!	!	!	!LO:TUP:b:problem=klamra łukowa	!	!LO:TUP:b:problem=klamra łukowa	!
16E-\LL	.	.	24e-/LL]	.	24g/LL]	.	4r	4r	24e-/LL]	.	24g/LL]	.
.	.	.	24f/	.	24a-/	.	.	.	24f/	.	24a-/	.
16E-\	.	.	.	.	.	.	.	.	.	.	.	.
.	.	.	24g/	.	24b-/	.	.	.	24g/	.	24b-/	.
16E-\	6 4	.	24a-/	.	24cc/	.	.	.	24a-/	.	24cc/	.
.	.	.	24g/	.	24b-/	.	.	.	24g/	.	24b-/	.
16E-\JJ	.	.	.	.	.	.	.	.	.	.	.	.
.	.	.	24f/JJ	.	24a-/JJ	.	.	.	24f/JJ	.	24a-/JJ	.
!	!	!	!	!	!	!	!LO:LB:g=original	!LO:LB:g=original	!	!	!	!
=41	=41	=41	=41	=41	=41	=41	=41	=41	=41	=41	=41	=41
16E-\LL	5 3	.	(16ee-\LL	.	(16ee-\LL	.	4e-/	4b-/	2g/	.	2b-/	.
16E-\	.	.	16g\J)	.	16b-\J)	.	.	.	.	.	.	.
*	*	*	*custos:b	*	*	*	*	*	*	*	*	*
!	!	!	!LO:TX:a:t=P:problem=brak początku ligatury	!	!	!	!	!	!	!	!	!
16E-\	.	.	[8g\J	.	8b-\J	.	.	.	.	.	.	.
16E-\JJ	.	.	.	.	.	.	.	.	.	.	.	.
!	!	!	!LO:LB:g=original	!	!	!	!	!	!	!	!	!
16E-\LL	-7r	.	(32g\LLL]	.	(32b-\LLL	.	4r	4r	.	.	.	.
.	.	.	32a-\	.	32cc\	.	.	.	.	.	.	.
16E-\	.	.	32b-\	.	32dd-X\	.	.	.	.	.	.	.
.	.	.	32cc\	.	32ee-\	.	.	.	.	.	.	.
16E-\	.	.	32dd-X\	.	32ff\	.	.	.	.	.	.	.
.	.	.	32b-\	.	32dd-X\	.	.	.	.	.	.	.
16E-\JJ	.	.	32a-\	.	32cc\	.	.	.	.	.	.	.
.	.	.	32g\JJJ)	.	32b-\JJJ)	.	.	.	.	.	.	.
=42	=42	=42	=42	=42	=42	=42	=42	=42	=42	=42	=42	=42
!	!	!	!	!	!	!	!LO:TX:a:t=1	!LO:TX:a:t=1	!	!	!	!
8A-\L	3	.	8e-/	.	(16bn\LL	.	2r	2r	2a-/	.	(16bn\LL	.
.	.	.	.	.	16cc\J)	.	.	.	.	.	16cc\JJ)	.
8F\	5	.	4f/	.	8.cc\J	.	.	.	.	.	4cc\	.
8F\	.	.	.	.	.	.	.	.	.	.	.	.
!	!	!	!	!	!LO:LB:g=original	!	!	!	!	!	!	!
.	.	.	.	.	8qqbb-/	.	.	.	.	.	.	.
.	.	.	.	.	16aa-\LL	.	.	.	.	.	.	.
.	.	.	.	.	8qqgg/	.	.	.	.	.	.	.
8F\J	6	.	8f/	.	16ff\	.	.	.	.	.	8dd\	.
.	.	.	.	.	8qqee-/	.	.	.	.	.	.	.
.	.	.	.	.	16dd\JJ	.	.	.	.	.	.	.
!	!	!	!	!	!	!	!	!	!LO:LB:g=original	!	!	!
=43	=43	=43	=43	=43	=43	=43	=43	=43	=43	=43	=43	=43
*	*	*	*	*	*Xtuplet	*	*	*	*	*	*	*
4E-\	.	.	4g/	.	24ee-\LL|	.	4e-/	4b-/	4g/	.	4ee-\	.
.	.	.	.	.	24dd\|	.	.	.	.	.	.	.
.	.	.	.	.	24cc\JJ|	.	.	.	.	.	.	.
.	.	.	.	.	24b-X\LL|	.	.	.	.	.	.	.
.	.	.	.	.	24a-\|	.	.	.	.	.	.	.
.	.	.	.	.	24g\JJ|	.	.	.	.	.	.	.
4r	.	.	4r	.	24f/LL|	.	4r	4r	4r	.	4r	.
.	.	.	.	.	24e-/|	.	.	.	.	.	.	.
.	.	.	.	.	24d/JJ|	.	.	.	.	.	.	.
.	.	.	.	.	24c/LL|	.	.	.	.	.	.	.
.	.	.	.	.	24B-/|	.	.	.	.	.	.	.
.	.	.	.	.	24A-/JJ|	.	.	.	.	.	.	.
=44	=44	=44	=44	=44	=44	=44	=44	=44	=44	=44	=44	=44
8r	.	.	8e-/	.	8.G/L	.	4ee-\	4gg\	8r	.	8ee-\	.
8GG/L	6	.	4e-/	.	.	.	.	.	8b-\|	.	4ee-\	.
.	.	.	.	.	32e-/LL	.	.	.	.	.	.	.
.	.	.	.	.	32f/JJJ	.	.	.	.	.	.	.
.	.	.	.	.	8qqg/	.	.	.	.	.	.	.
8AA-/	6 5	.	.	.	4fT/	.	4b-/	8.ffT\L	(16cc/LL	.	.	.
.	.	.	.	.	.	.	.	.	16a-/J	.	.	.
8BB-/J	3	.	8dt/	.	.	.	.	.	8fT/J)	.	8dd\	.
.	.	.	.	.	.	.	.	16ee-\Jk	.	.	.	.
!LO:LB:g=original	!	!	!	!	!	!	!	!	!	!	!LO:LB:g=original	!
=45	=45	=45	=45	=45	=45	=45	=45	=45	=45	=45	=45	=45
4E-\	.	.	4g/	.	24ee-\LL|	.	4e-/	4b-/	4g/	.	4ee-\	.
.	.	.	.	.	24dd\|	.	.	.	.	.	.	.
.	.	.	.	.	24cc\JJ|	.	.	.	.	.	.	.
.	.	.	.	.	24b-X\LL|	.	.	.	.	.	.	.
.	.	.	.	.	24a-\|	.	.	.	.	.	.	.
.	.	.	.	.	24g\JJ|	.	.	.	.	.	.	.
4r	.	.	4r	.	24f/LL|	.	4r	4r	4r	.	4r	.
.	.	.	.	.	24e-/|	.	.	.	.	.	.	.
.	.	.	.	.	24d/JJ|	.	.	.	.	.	.	.
.	.	.	.	.	24c/LL|	.	.	.	.	.	.	.
.	.	.	.	.	24B-/|	.	.	.	.	.	.	.
.	.	.	.	.	24A-/JJ|	.	.	.	.	.	.	.
=46	=46	=46	=46	=46	=46	=46	=46	=46	=46	=46	=46	=46
8r	.	.	8e-/	.	8.G/L	.	4ee-\	4gg\	8r	.	8ee-\	.
8GG/L	6	.	4e-/	.	.	.	.	.	8b-\|	.	4ee-\	.
.	.	.	.	.	32e-/LL	.	.	.	.	.	.	.
.	.	.	.	.	32f/JJJ	.	.	.	.	.	.	.
.	.	.	.	.	8qqg/	.	.	.	.	.	.	.
8AA-/	6 5	.	.	.	4fT/	.	4b-/	8.ff\L	(16cc/LL	.	.	.
.	.	.	.	.	.	.	.	.	16a-/J	.	.	.
8BB-/J	3	.	8dt/	.	.	.	.	.	8fT/J)	.	8dd\	.
.	.	.	.	.	.	.	.	16ee-\Jk	.	.	.	.
=47	=47	=47	=47	=47	=47	=47	=47	=47	=47	=47	=47	=47
!	!	!	!LO:TX:t=P:problem=mixed beam	!	!LO:TX:t=P:problem=mixed beam	!	!	!	!	!	!	!
4E-\	.	.	16e-/LL	.	16e-/LL	.	4g/	4ee-\	4g/	.	4ee-\	.
.	.	.	16ee-\JJ	.	16bb-\JJ	.	.	.	.	.	.	.
.	.	.	16r	.	16r	.	.	.	.	.	.	.
.	.	.	16ee-\|	.	16gg\|	.	.	.	.	.	.	.
4r	.	.	(16ee-\LL	.	(16gg\LL	.	4r	4r	4r	.	4r	.
.	.	.	16b-\)	.	16ee-\)	.	.	.	.	.	.	.
.	.	.	(16b-\	.	(16ee-\	.	.	.	.	.	.	.
.	.	.	16g\JJ)	.	16b-\JJ)	.	.	.	.	.	.	.
!	!	!	!	!	!LO:LB:g=original	!	!	!	!	!	!	!
=48	=48	=48	=48	=48	=48	=48	=48	=48	=48	=48	=48	=48
!	!	!	!LO:TX:t=P:problem=mixed beam	!	!	!	!	!	!	!	!	!
4E-\	.	.	16g/LL|>	.	16b-\LL	.	4g/	4b-/	4b-/	.	4gg\	.
.	.	.	16ee-\JJ|>	.	16ee-\JJ	.	.	.	.	.	.	.
.	.	.	16r	.	16r	.	.	.	.	.	.	.
.	.	.	16g/|	.	16ee-\|	.	.	.	.	.	.	.
4r	.	.	(16g/LL	.	(16ee-\LL	.	4r	4r	4r	.	4r	.
.	.	.	16e-/)	.	16b-\)	.	.	.	.	.	.	.
.	.	.	(16g/	.	(16b-\	.	.	.	.	.	.	.
.	.	.	16e-/JJ)	.	16g\JJ)	.	.	.	.	.	.	.
!	!	!	!LO:LB:g=original	!	!	!	!	!LO:LB:g=original	!	!	!	!
=49	=49	=49	=49	=49	=49	=49	=49	=49	=49	=49	=49	=49
8r	.	.	(16.G/LL	.	(16.e-/LL	.	8e-/L	8g/L	(16.g/LL	.	(16.ee-\LL	.
.	.	.	32A-/K)	.	32f/K	.	.	.	32a-/K)	.	32ff\K	.
8E-\L|	.	.	(16.G/	.	16.e-/	.	16e-/L	16g/L	(16.g/	.	16.ee-\	.
.	.	.	.	.	.	.	16e-/JJ	16g/JJ	.	.	.	.
.	.	.	32A-/JJk)	.	32f/JJk)	.	.	.	32a-/JJk)	.	32ff\JJk)	.
8BB-\|	.	.	(16.G/LL	.	(16.e-/LL	.	16e-/LL	16g/LL	(16.g/LL	.	(16.ee-\LL	.
.	.	.	.	.	.	.	16e-/	16g/	.	.	.	.
.	.	.	32A-/K)	.	32f/K	.	.	.	32a-/K	.	32ff\K	.
8GG\J|	.	.	(16.G/	.	16.e-/	.	16e-/	16g/	16.g/	.	16.ee-\	.
.	.	.	.	.	.	.	16e-/JJ	16g/JJ	.	.	.	.
.	.	.	32A-/JJk)	.	32f/JJk)	.	.	.	32a-/JJk)	.	32ff\JJk)	.
=50	=50	=50	=50	=50	=50	=50	=50	=50	=50	=50	=50	=50
.	.	.	.	.	.	.	.	.	8qqa-/	.	8qqff/	.
2EE-/	.	.	2e- 2G/	.	2e- 2G/	.	2e-/	2g/	2g/	.	2ee-\	.
==	==	==	==	==	==	==	==	==	==	==	==	==
*-	*-	*-	*-	*-	*-	*-	*-	*-	*-	*-	*-	*-
!!!system-decoration: [(g1)][(g2)][(g3)]<s7>
!!!RDF**kern: > = above
!!!RDF**kern: | = vertical stroke
!!!ENC: Andrzej Kubiczek
!!!END: 2022-04-04
!!!ENC: Andrzej Kubiczek
!!!END: 2022-04-05
!!!YEC: Copyright 2022 Narodowy Instytut Fryderyka Chopina (https://polishscores.org)
!!!YEM: Licence CC BY 4.0 (https://creativecommons.org/licenses/by/4.0)
